public/auto.svg

<!DOCTYPE svg PUBLIC "-//W3C//DTD SVG 1.1//EN" "http://www.w3.org/Graphics/SVG/1.1/DTD/svg11.dtd">
<!-- Uploaded to: SVG Repo, www.svgrepo.com, Transformed by: SVG Repo Mixer Tools -->
<svg fill="#5a981b" width="800px" height="800px" viewBox="0 0 50 50" xmlns="http://www.w3.org/2000/svg" xmlns:xlink="http://www.w3.org/1999/xlink">
<g id="SVGRepo_bgCarrier" stroke-width="0"/>
<g id="SVGRepo_tracerCarrier" stroke-linecap="round" stroke-linejoin="round"/>
<g id="SVGRepo_iconCarrier">
<path d="M16.984375 6.9863281 A 1.0001 1.0001 0 0 0 16.841797 7L9 7C4.0414839 7 0 11.041484 0 16L0 18.832031 A 1.0001 1.0001 0 0 0 0 19.158203L0 23L0 24L0 33C0 35.209 1.791 37 4 37L4.0410156 37C4.0272801 37.166874 4 37.332921 4 37.5C4 38.847222 4.4436807 40.207881 5.3769531 41.257812C6.3102255 42.307744 7.7500005 43 9.5 43C11.249999 43 12.689774 42.307744 13.623047 41.257812C14.556319 40.207881 15 38.847222 15 37.5C15 37.332921 14.97272 37.166874 14.958984 37L32.085938 37L44.925781 27.013672L44.943359 26.998047C44.881359 25.661047 44.758797 24.385922 44.591797 23.169922C44.584797 23.114922 44.580266 23.055 44.572266 23L44.564453 23C43.597218 16.173862 41.207756 11.336942 39.828125 9L43 9 A 1.0001 1.0001 0 1 0 43 7L17.167969 7 A 1.0001 1.0001 0 0 0 16.984375 6.9863281 z M 9 9L16 9L16 18L2 18L2 16C2 12.122516 5.1225161 9 9 9 z M 18 9L30 9L30 25.5C30 28.533 27.532 31 24.5 31L22 31L22 28C22 25.585637 20.279096 23.566404 18 23.101562L18 19.167969 A 1.0001 1.0001 0 0 0 18 18.841797L18 9 z M 35 9L37.462891 9C38.128719 9.9710703 41.050765 14.526735 42.373047 22L35 22L35 9 z M 2 20L16 20L16 23L2 23L2 20 z M 45.919922 28.773438L36.628906 36L38.234375 36C38.096218 36.47937 38 36.976318 38 37.5C38 40.533 40.468 43 43.5 43C46.532 43 49 40.533 49 37.5C49 36.979775 48.922717 36.477329 48.787109 36L49 36C49.3 36 49.583438 35.866766 49.773438 35.634766C49.962438 35.403766 50.039469 35.098687 49.980469 34.804688C49.297469 31.384687 47.356922 29.629437 45.919922 28.773438 z M 40.351562 36L46.648438 36C46.866983 36.456487 47 36.961001 47 37.5C47 39.43 45.43 41 43.5 41C41.57 41 40 39.43 40 37.5C40 36.961001 40.133017 36.456487 40.351562 36 z M 6.0429688 37L12.957031 37C12.978067 37.165983 13 37.331532 13 37.5C13 38.402778 12.69368 39.292119 12.126953 39.929688C11.560226 40.567256 10.749999 41 9.5 41C8.2500008 41 7.4397738 40.567256 6.8730469 39.929688C6.3063199 39.292119 6 38.402778 6 37.5C6 37.331532 6.0219328 37.165983 6.0429688 37 z"/>
</g>
</svg>

<svg xmlns="http://www.w3.org/2000/svg" width="800" height="800" fill="#5a981b" viewBox="0 0 50 50"><path d="M16.984 6.986a1 1 0 0 0-.142.014H9c-4.959 0-9 4.041-9 9v2.832a1 1 0 0 0 0 .326V33a4 4 0 0 0 4 4h.041c-.014.167-.041.333-.041.5 0 1.347.444 2.708 1.377 3.758S7.75 43 9.5 43s3.19-.692 4.123-1.742S15 38.848 15 37.5c0-.167-.027-.333-.041-.5h17.127l12.84-9.986.017-.016a43 43 0 0 0-.351-3.828c-.007-.055-.012-.115-.02-.17h-.008c-.967-6.826-3.356-11.663-4.736-14H43a1 1 0 1 0 0-2H17.168a1 1 0 0 0-.184-.014M9 9h7v9H2v-2c0-3.877 3.123-7 7-7m9 0h12v16.5c0 3.033-2.468 5.5-5.5 5.5H22v-3a5.01 5.01 0 0 0-4-4.898v-3.934a1 1 0 0 0 0-.326zm17 0h2.463c.666.971 3.588 5.527 4.91 13H35zM2 20h14v3H2zm43.92 8.773L36.629 36h1.605c-.138.48-.234.976-.234 1.5 0 3.033 2.468 5.5 5.5 5.5s5.5-2.467 5.5-5.5a5.5 5.5 0 0 0-.213-1.5H49a.998.998 0 0 0 .98-1.195c-.683-3.42-2.623-5.176-4.06-6.032M40.352 36h6.296c.219.456.352.961.352 1.5 0 1.93-1.57 3.5-3.5 3.5S40 39.43 40 37.5c0-.539.133-1.044.352-1.5M6.043 37h6.914c.021.166.043.332.043.5 0 .903-.306 1.792-.873 2.43C11.56 40.567 10.75 41 9.5 41s-2.06-.433-2.627-1.07C6.306 39.292 6 38.403 6 37.5c0-.168.022-.334.043-.5"/></svg>
